X: 40406
T: Tom Maguire's Fancy
R: reel
M: 4/4
K: Gmajor
dB|AFFE ~F3E|DF~F2 ADFA|BGGF G2eg|fdcA dBcA|
BGGF ~G3A|BGBd gdBG|DEFG AdcA|BGAD G2:|
|:Bc|dg~g2 bgag|fdcA dBcA|dg~g2 fgaf|defg ag~g2|
b2ag bgag|fdcA B2AF|DG~G2 AF~F2|(3Bcd cA G2:|

